X: 165
T: Evening
C: C. H. Rinck
%R: air, march
B: "The Everyday Song Book", 1927
F: http://www.library.pitt.edu/happybirthday/pdf/The_Everyday_Song_Book.pdf
Z: 2017 John Chambers <jc:trillian.mit.edu>
M: 4/4
L: 1/4
K: A
% - - - - - - - - - - - - - - - - - - - - - - - - - - - - -
[|\
[cA][cA] [BE][BE] | [A2C2] [E2C2] | [FD][GD] [AC][cA] | [B3G3]z |
w: 1.~Lo! a-gain 'tis eve-ning,      Peace wafts from the west,
w: 2.~O'er yon rocks de-scend-ing,   Pours the stream a-lone,
w: 3.~Thus thy strug-gling tor-rent, Oh, my heart, e'er flows:
%
[cA][c=G] [dF][cA] | [B2G2] [e2=G2] | [AF][dF] [cE][BG] | [A3A3]z |]
w: O-ver field and for-est,  And the world doth rest.
w: And it flow-eth on-ward   With un-ceas-ing moan.
w: God a-lone can give thee  Eve-ning's true re-pose.
% - - - - - - - - - - - - - - - - - - - - - - - - - - - - -
